svgs/regular/bottle-water.svg

<svg xmlns="http://www.w3.org/2000/svg" viewBox="0 0 320 512"><!--! Font Awesome Pro 6.1.1 by @fontawesome - https://fontawesome.com License - https://fontawesome.com/license (Commercial License) Copyright 2022 Fonticons, Inc. --><path d="M200 0C213.3 0 224 10.75 224 24V78C234.7 81.75 244.9 87.2 253.1 94.21L259.1 98.79C282.7 116.2 296 143.2 296 171.9C296 184.4 293.5 196.3 288.1 207.2C293.5 217.2 296 228.3 296 240C296 251.4 293.6 262.2 289.3 272C293.6 281.8 296 292.6 296 304C296 315.4 293.6 326.2 289.3 336C293.6 345.8 296 356.6 296 368C296 379.4 293.6 390.2 289.3 400C293.6 409.8 296 420.6 296 432C296 476.2 260.2 512 216 512H104C59.82 512 24 476.2 24 432C24 420.6 26.38 409.8 30.66 400C26.38 390.2 24 379.4 24 368C24 356.6 26.38 345.8 30.66 336C26.38 326.2 24 315.4 24 304C24 292.6 26.38 281.8 30.66 272C26.38 262.2 24 251.4 24 240C24 228.3 26.51 217.2 31.02 207.2C26.5 196.3 24 184.4 24 171.9C24 143.2 37.32 116.2 60.03 98.79L66.01 94.21C75.14 87.2 85.28 81.75 96 78V24C96 10.75 106.7 0 120 0L200 0zM224.8 132.3C214.4 124.3 201.7 120 188.6 120H131.4C118.3 120 105.6 124.3 95.24 132.3L89.26 136.9C79.8 144.1 73.75 154.8 72.32 166.5C72.11 168.3 72 170.1 72 171.9C72 186.8 79.42 200 90.78 208H229.2C240.6 200 248 186.8 248 171.9C248 170.1 247.9 168.3 247.7 166.5C246.2 154.8 240.2 144.1 230.7 136.9L224.8 132.3zM73.6 378C77.81 390.8 89.83 400 104 400C86.33 400 72 414.3 72 432C72 435.5 72.56 438.9 73.6 442C77.81 454.8 89.83 464 104 464H216C230.2 464 242.2 454.8 246.4 442C247.4 438.9 248 435.5 248 432C248 414.3 233.7 400 216 400C230.2 400 242.2 390.8 246.4 378C247.4 374.9 248 371.5 248 368C248 364.5 247.4 361.1 246.4 357.1C242.2 345.2 230.2 336 216 336H104C89.83 336 77.81 345.2 73.6 357.1C72.56 361.1 72 364.5 72 368C72 371.5 72.56 374.9 73.6 378zM95.24 132.3L66.01 94.21L95.24 132.3zM230.7 136.9L259.1 98.79z"/></svg>

<svg xmlns="http://www.w3.org/2000/svg" viewBox="0 0 320 512"><!--! Font Awesome Pro 6.4.2 by @fontawesome - https://fontawesome.com License - https://fontawesome.com/license (Commercial License) Copyright 2023 Fonticons, Inc. --><path d="M96 24c0-13.3 10.7-24 24-24h80c13.3 0 24 10.7 24 24V78c10.7 3.7 20.9 9.2 30 16.2l6 4.6c22.7 17.4 36 44.4 36 73.1c0 12.5-2.5 24.4-7 35.3c4.5 10 7 21.1 7 32.8c0 11.4-2.4 22.2-6.7 32c4.3 9.8 6.7 20.6 6.7 32s-2.4 22.2-6.7 32c4.3 9.8 6.7 20.6 6.7 32s-2.4 22.2-6.7 32c4.3 9.8 6.7 20.6 6.7 32c0 44.2-35.8 80-80 80H104c-44.2 0-80-35.8-80-80c0-11.4 2.4-22.2 6.7-32c-4.3-9.8-6.7-20.6-6.7-32s2.4-22.2 6.7-32c-4.3-9.8-6.7-20.6-6.7-32s2.4-22.2 6.7-32c-4.3-9.8-6.7-20.6-6.7-32c0-11.7 2.5-22.8 7-32.8c-4.5-10.9-7-22.8-7-35.3c0-28.6 13.3-55.6 36-73.1l6-4.6c9.1-7 19.3-12.5 30-16.2V24zM237.8 208c0-4.5 1.2-8.9 3.6-12.9c4.2-6.7 6.6-14.7 6.6-23.2c0-13.7-6.4-26.7-17.3-35l-6-4.6c-10.4-8-23.1-12.3-36.2-12.3H131.4c-13.1 0-25.8 4.3-36.2 12.3l-6 4.6c-10.9 8.4-17.3 21.3-17.3 35c0 8.6 2.4 16.5 6.6 23.2c2.5 4 3.7 8.4 3.6 12.9H237.8zM82 336c0 4.8-1.4 9.6-4.3 13.7C74.1 354.9 72 361.2 72 368s2.1 13.1 5.7 18.3c5.8 8.2 5.8 19.2 0 27.5C74.1 418.9 72 425.2 72 432c0 17.7 14.3 32 32 32H216c17.7 0 32-14.3 32-32c0-6.8-2.1-13.1-5.7-18.3c-5.8-8.2-5.8-19.2 0-27.5c3.6-5.2 5.7-11.4 5.7-18.3s-2.1-13.1-5.7-18.3c-2.9-4.1-4.3-8.9-4.3-13.7H82z"/></svg>
